X: 7119
T: Christmas In Clare
R: jig
M: 6/8
K: Dmajor
|:f2d cAG|FDD AGA|B2G GFG|Adc AGE|
F2D AGF|GAB A2A|GAB AGF|EED EFG:|
|:FAd fff|agf fgf|eAA egf|eAA efg|
[1 fed eAG|FGA d3|GAB AGF|EED EFG:|
[2 afd BAG|FDD AGF|GAB Adf|edc d3||

